X:241
T: HERE IS THY HOME LOVE AILEEN AROON
N: B0727A
O: Europa, Mitteleuropa, Irland
R: Liebes - Lied
M: 3/4
L: 1/16
K: Bb
 | F3GB3cd3c | B3AB3cd4
F4G4B3c | B12
F3GB3cd3c | B3AB3cd4
F4G4B3c | B12
e3de2f2e2dc | d3cd2e2d2cB
c3Bc2d2edcB | B3cG2BGF4
f4e2d2c2BA | B3AB3cd4
F4G4B3c | B12

